X: 42708
T: Whistling Low
R: jig
M: 6/8
K: Eminor
edB {a/}dBA|{A/}GED EGA|BGA EBA|{A/}GED DdD|
FGF E(3DEF|{A/}GFE FGA|(3BcdB {c/}AGF|{A/}G~E3zd|
JedB{a/}dBA|{A/}GED EGA|BGA EBA|{A/}GED DdD|
FGF E(3DEF|{A/}GFE FGA|~B3 {c/}AGF|{A/}G~E3zf|
J{a/}g~e3dB|{a/}dBA GAB|dBA B/d/BA|G~E3zg|
aba Jage|{a/}edB {c/}BAc|BGB {c/}AGF|GAB def|
Jg3 {a/}edB|{a/}dBA GAB|{a/}dBA B/d/BA|G~E3zg|
aba Jage|{a/}edB {c/}BAc|BGB {c/}AGF|E~A3z2|

